dist/svg/u1F35F.svg

<?xml version="1.0" encoding="UTF-8"?><svg id="Layer_1" xmlns="http://www.w3.org/2000/svg" viewBox="0 0 40 40"><rect width="40" height="40" style="fill:none;"/><g><path d="M29.62521,26.94413l-2.89578-.71552c-.54968-.13582-.88518-.69153-.74936-1.2412L30.38884,7.1446c.18255-.73879,1.07801-1.02818,1.65839-.53596l2.54025,2.15439c.29686,.25177,.42554,.64993,.33217,1.02781l-4.05324,16.40394c-.13582,.54968-.69153,.88518-1.2412,.74936Z" style="fill:#fa0;"/><path d="M18.94313,26.06967h2.98287c.56621,0,1.02521-.459,1.02521-1.02521V6.66503c0-.76101-.7999-1.25675-1.48141-.91812l-2.98287,1.48214c-.34858,.17321-.56901,.52888-.56901,.91812V25.04446c0,.56621,.459,1.02521,1.02521,1.02521Z" style="fill:#fa0;"/><path d="M12.0856,26.36596l-2.95343,.41808c-.56062,.07936-1.07943-.31078-1.15879-.8714L5.39735,7.71464c-.10666-.75349,.61586-1.35646,1.33811-1.11669l3.16116,1.04944c.36942,.12264,.63752,.4439,.69208,.8293l2.3683,16.73049c.07936,.56062-.31078,1.07943-.8714,1.15879Z" style="fill:#fa0;"/><path d="M17.89397,23.55079l-4.32461-.59447c-.56571,.02366-1.04349-.41577-1.06715-.98148l-.69568-16.63577c-.0156-.37301,.1728-.72501,.49183-.91891l2.91148-1.76962c.66693-.40537,1.5242,.05346,1.55681,.83324l1.12733,20.06702Z" style="fill:#ffcd00;"/><path d="M22.6903,22.84804l4.46485,1.20269,2.45826-19.76812c.11616-.75209-.59869-1.36412-1.32391-1.13349l-3.17416,1.00946c-.37094,.11797-.64307,.43582-.70249,.8205l-2.57926,16.69927c-.08643,.55957,.29713,1.08326,.85671,1.16969Z" style="fill:#ffcd00;"/><path d="M32.19936,14.59034c-.63537,0-1.20156,.33386-1.58914,.83732-1.66199,2.15889-5.78237,3.68857-10.61015,3.68857s-8.94829-1.52967-10.61028-3.68857c-.38759-.50347-.95377-.83732-1.58914-.83732h-2.81371c-.62557,0-1.10121,.56206-.99772,1.17902l3.36185,20.04204c.16349,.97466,1.00716,1.68861,1.99544,1.68861H30.65349c.98828,0,1.83195-.71394,1.99544-1.68861l3.36185-20.04204c.10349-.61695-.37215-1.17902-.99772-1.17902h-2.81371Z" style="fill:#e32939;"/></g></svg>

<svg id="Layer_1" data-name="Layer 1" xmlns="http://www.w3.org/2000/svg" viewBox="0 0 40 40"><defs><style>.cls-1{fill:none;}.cls-2{fill:#fa0;}.cls-3{fill:#ffcd00;}.cls-4{fill:#e32939;}</style></defs><rect class="cls-1" width="40" height="40"/><path class="cls-2" d="M29.625,26.944l-2.9-.715a1.026,1.026,0,0,1-.749-1.242L30.389,7.145a1.024,1.024,0,0,1,1.658-.536l2.54,2.154a1.027,1.027,0,0,1,.333,1.028L30.866,26.2A1.025,1.025,0,0,1,29.625,26.944Z"/><path class="cls-2" d="M18.943,26.07h2.983a1.025,1.025,0,0,0,1.025-1.026V6.665a1.025,1.025,0,0,0-1.481-.918L18.487,7.229a1.024,1.024,0,0,0-.569.918v16.9A1.025,1.025,0,0,0,18.943,26.07Z"/><path class="cls-2" d="M12.086,26.366l-2.954.418a1.027,1.027,0,0,1-1.159-.871L5.4,7.715A1.025,1.025,0,0,1,6.735,6.6L9.9,7.647a1.027,1.027,0,0,1,.692.83l2.368,16.73A1.025,1.025,0,0,1,12.086,26.366Z"/><path class="cls-3" d="M17.894,23.551l-4.325-.595a1.025,1.025,0,0,1-1.067-.981l-.7-16.636A1.024,1.024,0,0,1,12.3,4.42L15.21,2.651a1.025,1.025,0,0,1,1.557.833Z"/><path class="cls-3" d="M22.69,22.848l4.465,1.2L29.613,4.283A1.025,1.025,0,0,0,28.29,3.149l-3.175,1.01a1.023,1.023,0,0,0-.7.82l-2.579,16.7A1.025,1.025,0,0,0,22.69,22.848Z"/><path class="cls-4" d="M32.2,14.59a2.023,2.023,0,0,0-1.589.838c-1.662,2.159-5.782,3.688-10.61,3.688s-8.948-1.529-10.61-3.688A2.023,2.023,0,0,0,7.8,14.59H4.987a1.012,1.012,0,0,0-1,1.179L7.351,35.811a2.024,2.024,0,0,0,2,1.689H30.653a2.024,2.024,0,0,0,2-1.689l3.362-20.042a1.012,1.012,0,0,0-1-1.179Z"/></svg>
